X:1
T:Title
%%score [ ( 1 2 ) ( 3 4 ) ]
L:1/8
Q:1/4=240
M:4/4
K:Eb
V:1 treble nm="Midi_74"
V:2 treble 
V:3 bass nm="Midi_74"
V:4 bass 
V:1
 G8 | B4 B4 | e8 || E8 | F4 G4 | B6 A2 |"^E. J. Hopkins\n(1818-1901)" G8 |] %7
V:2
 E8 | G4 F4 | E8 || E8 | E4 E4 | E4 D4 | E8 |] %7
V:3
 B,8 | B,4 A,4 | G,8 || B,8 | A,4 B,4 | C4 B,4 | B,8 |] %7
V:4
 E,8 | E,4 B,,4 | C,8 || G,8 | A,4 G,4 | F,4 B,,4 | E,8 |] %7

